X:242
T:Traditional Reel In G
T:Primrose Lasses
S:Gillian Boucher, Edinburgh April 2001
Z:Nigel Gatherer
M:4/4
L:1/8
K:G
g|edBA G2 GE|DEGA BAAg|edBA G2 GE|DEGA BGGA|
BdAB G2 GE|DEGA BAAg|edBA G2 GE|DEGA BGG|]
B|d2 gd edgd|Bdgd BAAB|d2 gd efge|dBAc BGGB|
d2 gd edgd|Bdgd BAAB|dBde g2 ge|dBAc BGG|]
<end>
<start>
